X:1
T:Title
L:1/8
M:4/4
K:Eb
V:1 treble nm="Grand Piano"
V:1
 z4 z[Q:1/4=100] CCE | G2 G2 G2 FG | A2 A2- AFFE | D2 D2 E2 F2 | G2 G2- GG_G=G | B2 BB B2 AB | %6
 c2 c2- ccBA | A2 A2 B2 AB |[M:5/8] A2 G3 |[M:3/8] G G2 |[M:4/4] c2 c2- cBAG | BA A2- AFFF | %12
 B2 BB cBAB | AG G2- GGGG | AG F2- FF F2 | GF E2- EEEE | FEDD E2 F2 | G2 G2- GGGG | AG F2- FF F2 | %19
 GF E2- EEEE | FEDD G2 DF | ED C4 z2 |] %22

